Animations/Wrecksagon/Default/Wrecksagon.svg

<?xml version="1.0" encoding="UTF-8" standalone="no"?>
<!-- Created with Inkscape (http://www.inkscape.org/) -->

<svg
   xmlns:dc="http://purl.org/dc/elements/1.1/"
   xmlns:cc="http://creativecommons.org/ns#"
   xmlns:rdf="http://www.w3.org/1999/02/22-rdf-syntax-ns#"
   xmlns:svg="http://www.w3.org/2000/svg"
   xmlns="http://www.w3.org/2000/svg"
   xmlns:sodipodi="http://sodipodi.sourceforge.net/DTD/sodipodi-0.dtd"
   xmlns:inkscape="http://www.inkscape.org/namespaces/inkscape"
   width="64"
   height="64"
   id="svg2"
   version="1.1"
   inkscape:version="0.48.1 "
   sodipodi:docname="Wrecksagon.svg"
   inkscape:export-filename="C:\Users\djc\Code\shootytron\Animations\Wrecksagon\Default\000.png"
   inkscape:export-xdpi="90"
   inkscape:export-ydpi="90">
  <defs
     id="defs4">
    <linearGradient
       id="linearGradient3829">
      <stop
         style="stop-color:#940076;stop-opacity:0;"
         offset="0"
         id="stop3831" />
      <stop
         style="stop-color:#940076;stop-opacity:1;"
         offset="1"
         id="stop3833" />
    </linearGradient>
  </defs>
  <sodipodi:namedview
     id="base"
     pagecolor="#ffffff"
     bordercolor="#666666"
     borderopacity="1.0"
     inkscape:pageopacity="0.0"
     inkscape:pageshadow="2"
     inkscape:zoom="12.4375"
     inkscape:cx="32"
     inkscape:cy="32"
     inkscape:document-units="px"
     inkscape:current-layer="layer1"
     showgrid="false"
     inkscape:window-width="1288"
     inkscape:window-height="1065"
     inkscape:window-x="592"
     inkscape:window-y="47"
     inkscape:window-maximized="0"
     fit-margin-top="0"
     fit-margin-left="0"
     fit-margin-right="0"
     fit-margin-bottom="0" />
  <metadata
     id="metadata7">
    <rdf:RDF>
      <cc:Work
         rdf:about="">
        <dc:format>image/svg+xml</dc:format>
        <dc:type
           rdf:resource="http://purl.org/dc/dcmitype/StillImage" />
        <dc:title></dc:title>
      </cc:Work>
    </rdf:RDF>
  </metadata>
  <g
     inkscape:label="Layer 1"
     inkscape:groupmode="layer"
     id="layer1"
     transform="translate(-113.376,-588.36218)">
    <g
       id="g2994"
       transform="matrix(0.22328906,0,0,0.22328906,89.553735,506.69684)">
      <path
         inkscape:connector-curvature="0"
         inkscape:export-ydpi="20.091639"
         inkscape:export-xdpi="20.091639"
         inkscape:export-filename="C:\Users\djc\Desktop\wrecksagon_flower.png"
         id="path3827"
         d="m 287.21875,431.1875 -12.1875,21.15625 -50,0.0312 -12.21875,-21.15625 -7.78125,0 -3.875,6.6875 12.21875,21.125 -24.96875,43.3125 -24.4375,0 -3.875,6.75 3.84375,6.65625 24.40625,0 25.03125,43.28125 -12.1875,21.15625 3.90625,6.75 7.65625,0 12.21875,-21.1875 50,0 12.21875,21.125 7.78125,0 3.875,-6.6875 -12.21875,-21.125 24.96875,-43.3125 24.40625,0 3.90625,-6.75 -3.84375,-6.625 -24.40625,0 -25.03125,-43.3125 12.1875,-21.125 -3.90625,-6.75 -7.6875,0 z"
         style="fill:#820094;fill-opacity:1;stroke:none" />
      <path
         inkscape:export-ydpi="20.1"
         inkscape:export-xdpi="20.1"
         inkscape:export-filename="C:\Users\djc\Desktop\wrecksagon-part.png"
         transform="matrix(0.39355046,0,0,0.39355046,96.515321,200.10103)"
         d="m 453.57143,640.9336 -127.04851,0.0545 -63.57143,-110 63.47708,-110.05448 127.04851,-0.0545 63.57143,110 z"
         inkscape:randomized="0"
         inkscape:rounded="0"
         inkscape:flatsided="true"
         sodipodi:arg2="1.5703676"
         sodipodi:arg1="1.0467688"
         sodipodi:r2="109.27171"
         sodipodi:r1="127.04852"
         sodipodi:cy="530.93359"
         sodipodi:cx="390"
         sodipodi:sides="6"
         id="path3807"
         style="fill:#fb00d3;fill-opacity:1;stroke:none"
         sodipodi:type="star" />
      <path
         inkscape:export-ydpi="20.091639"
         inkscape:export-xdpi="20.091639"
         inkscape:export-filename="C:\Users\djc\Desktop\wrecksagon_flower.png"
         sodipodi:type="star"
         style="fill:#940076;fill-opacity:1;stroke:none"
         id="path3813"
         sodipodi:sides="6"
         sodipodi:cx="390"
         sodipodi:cy="530.93359"
         sodipodi:r1="127.04852"
         sodipodi:r2="109.27171"
         sodipodi:arg1="1.0467688"
         sodipodi:arg2="1.5703676"
         inkscape:flatsided="true"
         inkscape:rounded="0"
         inkscape:randomized="0"
         d="m 453.57143,640.9336 -127.04851,0.0545 -63.57143,-110 63.47708,-110.05448 127.04851,-0.0545 63.57143,110 z"
         transform="matrix(0.39355046,0,0,0.39355046,96.515321,300.10103)" />
      <path
         inkscape:export-ydpi="20.091639"
         inkscape:export-xdpi="20.091639"
         inkscape:export-filename="C:\Users\djc\Desktop\wrecksagon.png"
         transform="matrix(0.39355046,0,0,0.39355046,96.515321,400.10103)"
         d="m 453.57143,640.9336 -127.04851,0.0545 -63.57143,-110 63.47708,-110.05448 127.04851,-0.0545 63.57143,110 z"
         inkscape:randomized="0"
         inkscape:rounded="0"
         inkscape:flatsided="true"
         sodipodi:arg2="1.5703676"
         sodipodi:arg1="1.0467688"
         sodipodi:r2="109.27171"
         sodipodi:r1="127.04852"
         sodipodi:cy="530.93359"
         sodipodi:cx="390"
         sodipodi:sides="6"
         id="path3815"
         style="fill:#fb00d3;fill-opacity:1;stroke:none"
         sodipodi:type="star" />
      <path
         inkscape:export-ydpi="20.091639"
         inkscape:export-xdpi="20.091639"
         inkscape:export-filename="C:\Users\djc\Desktop\wrecksagon.png"
         transform="matrix(0.39355046,0,0,0.39355056,9.8913207,250.10097)"
         d="m 453.57143,640.9336 -127.04851,0.0545 -63.57143,-110 63.47708,-110.05448 127.04851,-0.0545 63.57143,110 z"
         inkscape:randomized="0"
         inkscape:rounded="0"
         inkscape:flatsided="true"
         sodipodi:arg2="1.5703676"
         sodipodi:arg1="1.0467688"
         sodipodi:r2="109.27171"
         sodipodi:r1="127.04852"
         sodipodi:cy="530.93359"
         sodipodi:cx="390"
         sodipodi:sides="6"
         id="path3817"
         style="fill:#fb00d3;fill-opacity:1;stroke:none"
         sodipodi:type="star" />
      <path
         inkscape:export-ydpi="20.091639"
         inkscape:export-xdpi="20.091639"
         inkscape:export-filename="C:\Users\djc\Desktop\wrecksagon.png"
         sodipodi:type="star"
         style="fill:#fb00d3;fill-opacity:1;stroke:none"
         id="path3821"
         sodipodi:sides="6"
         sodipodi:cx="390"
         sodipodi:cy="530.93359"
         sodipodi:r1="127.04852"
         sodipodi:r2="109.27171"
         sodipodi:arg1="1.0467688"
         sodipodi:arg2="1.5703676"
         inkscape:flatsided="true"
         inkscape:rounded="0"
         inkscape:randomized="0"
         d="m 453.57143,640.9336 -127.04851,0.0545 -63.57143,-110 63.47708,-110.05448 127.04851,-0.0545 63.57143,110 z"
         transform="matrix(0.39355046,0,0,0.39355056,9.8913207,350.10097)" />
      <path
         inkscape:export-ydpi="20.091639"
         inkscape:export-xdpi="20.091639"
         inkscape:export-filename="C:\Users\djc\Desktop\wrecksagon.png"
         sodipodi:type="star"
         style="fill:#fb00d3;fill-opacity:1;stroke:none"
         id="path3823"
         sodipodi:sides="6"
         sodipodi:cx="390"
         sodipodi:cy="530.93359"
         sodipodi:r1="127.04852"
         sodipodi:r2="109.27171"
         sodipodi:arg1="1.0467688"
         sodipodi:arg2="1.5703676"
         inkscape:flatsided="true"
         inkscape:rounded="0"
         inkscape:randomized="0"
         d="m 453.57143,640.9336 -127.04851,0.0545 -63.57143,-110 63.47708,-110.05448 127.04851,-0.0545 63.57143,110 z"
         transform="matrix(0.39355046,0,0,0.39355056,183.13932,250.10097)" />
      <path
         inkscape:export-ydpi="20.091639"
         inkscape:export-xdpi="20.091639"
         inkscape:export-filename="C:\Users\djc\Desktop\wrecksagon.png"
         transform="matrix(0.39355046,0,0,0.39355056,183.13932,350.10097)"
         d="m 453.57143,640.9336 -127.04851,0.0545 -63.57143,-110 63.47708,-110.05448 127.04851,-0.0545 63.57143,110 z"
         inkscape:randomized="0"
         inkscape:rounded="0"
         inkscape:flatsided="true"
         sodipodi:arg2="1.5703676"
         sodipodi:arg1="1.0467688"
         sodipodi:r2="109.27171"
         sodipodi:r1="127.04852"
         sodipodi:cy="530.93359"
         sodipodi:cx="390"
         sodipodi:sides="6"
         id="path3825"
         style="fill:#fb00d3;fill-opacity:1;stroke:none"
         sodipodi:type="star" />
    </g>
  </g>
</svg>

<?xml version="1.0" encoding="UTF-8" standalone="no"?>
<!-- Created with Inkscape (http://www.inkscape.org/) -->

<svg
   xmlns:dc="http://purl.org/dc/elements/1.1/"
   xmlns:cc="http://creativecommons.org/ns#"
   xmlns:rdf="http://www.w3.org/1999/02/22-rdf-syntax-ns#"
   xmlns:svg="http://www.w3.org/2000/svg"
   xmlns="http://www.w3.org/2000/svg"
   xmlns:sodipodi="http://sodipodi.sourceforge.net/DTD/sodipodi-0.dtd"
   xmlns:inkscape="http://www.inkscape.org/namespaces/inkscape"
   width="744.09448819"
   height="1052.3622047"
   id="svg2"
   version="1.1"
   inkscape:version="0.48.3.1 r9886"
   sodipodi:docname="New document 1">
  <defs
     id="defs4">
    <linearGradient
       id="linearGradient3829">
      <stop
         style="stop-color:#940076;stop-opacity:0;"
         offset="0"
         id="stop3831" />
      <stop
         style="stop-color:#940076;stop-opacity:1;"
         offset="1"
         id="stop3833" />
    </linearGradient>
  </defs>
  <sodipodi:namedview
     id="base"
     pagecolor="#ffffff"
     bordercolor="#666666"
     borderopacity="1.0"
     inkscape:pageopacity="0.0"
     inkscape:pageshadow="2"
     inkscape:zoom="1.4"
     inkscape:cx="214.21596"
     inkscape:cy="484.49899"
     inkscape:document-units="px"
     inkscape:current-layer="layer1"
     showgrid="false"
     inkscape:window-width="1280"
     inkscape:window-height="738"
     inkscape:window-x="-8"
     inkscape:window-y="-8"
     inkscape:window-maximized="1" />
  <metadata
     id="metadata7">
    <rdf:RDF>
      <cc:Work
         rdf:about="">
        <dc:format>image/svg+xml</dc:format>
        <dc:type
           rdf:resource="http://purl.org/dc/dcmitype/StillImage" />
        <dc:title></dc:title>
      </cc:Work>
    </rdf:RDF>
  </metadata>
  <g
     inkscape:label="Layer 1"
     inkscape:groupmode="layer"
     id="layer1">
    <path
       style="fill:#820094;fill-opacity:1;stroke:none"
       d="M 287.21875 431.1875 L 275.03125 452.34375 L 225.03125 452.375 L 212.8125 431.21875 L 205.03125 431.21875 L 201.15625 437.90625 L 213.375 459.03125 L 188.40625 502.34375 L 163.96875 502.34375 L 160.09375 509.09375 L 163.9375 515.75 L 188.34375 515.75 L 213.375 559.03125 L 201.1875 580.1875 L 205.09375 586.9375 L 212.75 586.9375 L 224.96875 565.75 L 274.96875 565.75 L 287.1875 586.875 L 294.96875 586.875 L 298.84375 580.1875 L 286.625 559.0625 L 311.59375 515.75 L 336 515.75 L 339.90625 509 L 336.0625 502.375 L 311.65625 502.375 L 286.625 459.0625 L 298.8125 437.9375 L 294.90625 431.1875 L 287.21875 431.1875 z "
       id="path3827"
       inkscape:export-filename="C:\Users\djc\Desktop\wrecksagon_flower.png"
       inkscape:export-xdpi="20.091639"
       inkscape:export-ydpi="20.091639" />
    <path
       sodipodi:type="star"
       style="fill:#fb00d3;fill-opacity:1;stroke:none"
       id="path3807"
       sodipodi:sides="6"
       sodipodi:cx="390"
       sodipodi:cy="530.93359"
       sodipodi:r1="127.04852"
       sodipodi:r2="109.27171"
       sodipodi:arg1="1.0467688"
       sodipodi:arg2="1.5703676"
       inkscape:flatsided="true"
       inkscape:rounded="0"
       inkscape:randomized="0"
       d="m 453.57143,640.9336 -127.04851,0.0545 -63.57143,-110 63.47708,-110.05448 127.04851,-0.0545 63.57143,110 z"
       transform="matrix(0.39355046,0,0,0.39355046,96.515321,200.10103)"
       inkscape:export-filename="C:\Users\djc\Desktop\wrecksagon-part.png"
       inkscape:export-xdpi="20.1"
       inkscape:export-ydpi="20.1" />
    <path
       transform="matrix(0.39355046,0,0,0.39355046,96.515321,300.10103)"
       d="m 453.57143,640.9336 -127.04851,0.0545 -63.57143,-110 63.47708,-110.05448 127.04851,-0.0545 63.57143,110 z"
       inkscape:randomized="0"
       inkscape:rounded="0"
       inkscape:flatsided="true"
       sodipodi:arg2="1.5703676"
       sodipodi:arg1="1.0467688"
       sodipodi:r2="109.27171"
       sodipodi:r1="127.04852"
       sodipodi:cy="530.93359"
       sodipodi:cx="390"
       sodipodi:sides="6"
       id="path3813"
       style="fill:#940076;fill-opacity:1;stroke:none"
       sodipodi:type="star"
       inkscape:export-filename="C:\Users\djc\Desktop\wrecksagon_flower.png"
       inkscape:export-xdpi="20.091639"
       inkscape:export-ydpi="20.091639" />
    <path
       sodipodi:type="star"
       style="fill:#fb00d3;fill-opacity:1;stroke:none"
       id="path3815"
       sodipodi:sides="6"
       sodipodi:cx="390"
       sodipodi:cy="530.93359"
       sodipodi:r1="127.04852"
       sodipodi:r2="109.27171"
       sodipodi:arg1="1.0467688"
       sodipodi:arg2="1.5703676"
       inkscape:flatsided="true"
       inkscape:rounded="0"
       inkscape:randomized="0"
       d="m 453.57143,640.9336 -127.04851,0.0545 -63.57143,-110 63.47708,-110.05448 127.04851,-0.0545 63.57143,110 z"
       transform="matrix(0.39355046,0,0,0.39355046,96.515321,400.10103)"
       inkscape:export-filename="C:\Users\djc\Desktop\wrecksagon.png"
       inkscape:export-xdpi="20.091639"
       inkscape:export-ydpi="20.091639" />
    <path
       sodipodi:type="star"
       style="fill:#fb00d3;fill-opacity:1;stroke:none"
       id="path3817"
       sodipodi:sides="6"
       sodipodi:cx="390"
       sodipodi:cy="530.93359"
       sodipodi:r1="127.04852"
       sodipodi:r2="109.27171"
       sodipodi:arg1="1.0467688"
       sodipodi:arg2="1.5703676"
       inkscape:flatsided="true"
       inkscape:rounded="0"
       inkscape:randomized="0"
       d="m 453.57143,640.9336 -127.04851,0.0545 -63.57143,-110 63.47708,-110.05448 127.04851,-0.0545 63.57143,110 z"
       transform="matrix(0.39355046,0,0,0.39355056,9.8913207,250.10097)"
       inkscape:export-filename="C:\Users\djc\Desktop\wrecksagon.png"
       inkscape:export-xdpi="20.091639"
       inkscape:export-ydpi="20.091639" />
    <path
       transform="matrix(0.39355046,0,0,0.39355056,9.8913207,350.10097)"
       d="m 453.57143,640.9336 -127.04851,0.0545 -63.57143,-110 63.47708,-110.05448 127.04851,-0.0545 63.57143,110 z"
       inkscape:randomized="0"
       inkscape:rounded="0"
       inkscape:flatsided="true"
       sodipodi:arg2="1.5703676"
       sodipodi:arg1="1.0467688"
       sodipodi:r2="109.27171"
       sodipodi:r1="127.04852"
       sodipodi:cy="530.93359"
       sodipodi:cx="390"
       sodipodi:sides="6"
       id="path3821"
       style="fill:#fb00d3;fill-opacity:1;stroke:none"
       sodipodi:type="star"
       inkscape:export-filename="C:\Users\djc\Desktop\wrecksagon.png"
       inkscape:export-xdpi="20.091639"
       inkscape:export-ydpi="20.091639" />
    <path
       transform="matrix(0.39355046,0,0,0.39355056,183.13932,250.10097)"
       d="m 453.57143,640.9336 -127.04851,0.0545 -63.57143,-110 63.47708,-110.05448 127.04851,-0.0545 63.57143,110 z"
       inkscape:randomized="0"
       inkscape:rounded="0"
       inkscape:flatsided="true"
       sodipodi:arg2="1.5703676"
       sodipodi:arg1="1.0467688"
       sodipodi:r2="109.27171"
       sodipodi:r1="127.04852"
       sodipodi:cy="530.93359"
       sodipodi:cx="390"
       sodipodi:sides="6"
       id="path3823"
       style="fill:#fb00d3;fill-opacity:1;stroke:none"
       sodipodi:type="star"
       inkscape:export-filename="C:\Users\djc\Desktop\wrecksagon.png"
       inkscape:export-xdpi="20.091639"
       inkscape:export-ydpi="20.091639" />
    <path
       sodipodi:type="star"
       style="fill:#fb00d3;fill-opacity:1;stroke:none"
       id="path3825"
       sodipodi:sides="6"
       sodipodi:cx="390"
       sodipodi:cy="530.93359"
       sodipodi:r1="127.04852"
       sodipodi:r2="109.27171"
       sodipodi:arg1="1.0467688"
       sodipodi:arg2="1.5703676"
       inkscape:flatsided="true"
       inkscape:rounded="0"
       inkscape:randomized="0"
       d="m 453.57143,640.9336 -127.04851,0.0545 -63.57143,-110 63.47708,-110.05448 127.04851,-0.0545 63.57143,110 z"
       transform="matrix(0.39355046,0,0,0.39355056,183.13932,350.10097)"
       inkscape:export-filename="C:\Users\djc\Desktop\wrecksagon.png"
       inkscape:export-xdpi="20.091639"
       inkscape:export-ydpi="20.091639" />
    <path
       transform="matrix(0.7076118,0,0,0.7076118,-494.54003,-20.930404)"
       d="m 453.57143,640.9336 -127.04851,0.0545 -63.57143,-110 63.47708,-110.05448 127.04851,-0.0545 63.57143,110 z"
       inkscape:randomized="0"
       inkscape:rounded="0"
       inkscape:flatsided="true"
       sodipodi:arg2="1.5703676"
       sodipodi:arg1="1.0467688"
       sodipodi:r2="109.27171"
       sodipodi:r1="127.04852"
       sodipodi:cy="530.93359"
       sodipodi:cx="390"
       sodipodi:sides="6"
       id="path3839"
       style="fill:#820094;fill-opacity:1;stroke:none"
       sodipodi:type="star" />
  </g>
</svg>
